X:92
T:Sellinger's Round
Z:Jack Campin, http://www.campin.me.uk/
F:Jack Campin's Nine-Note Tunebook
% last edit 03-02-2013
M:6/8
L:1/8
K:F
     F3  F>GA|B3   B>cd|c2B  A>GA|B6  |
     F2F F>GA|B3   B>cd|c2B  A>GA|B3- B2
c   |d3  d>cB|c3-  c2c |A>Bc c>BA|G3  c2
A   |B>cB A2F|G>AB A2F |G2F  E>DE|F3- F2
G/A/|B>cB A2F|G>AB A2F |G>AF E>DE|F6  |]

